X: 3
T: John Stenson's #2   [A]
R:reel
D:Mark Simos, Ashokan '85, also similar in The Portland Collection
S:Portland Collection v.1
M:C|
K:A
cB |\
"A"ABcA "E"B2cB | "A"ABcA "E"BAFE | "A"ABcA "E"B2ef | "A"e2cA "E"BAFE || "A"ABcA "E"B2cB | "A"ABcA "E"BAFE |
"D"d2dc dfed | "E"cdBc "A"A2 :: ef | "A"e2cd e2cd | edcA "E"BAFE | "A"e2cd edcA |
"E"B2Bc BAFE || "A"e2cd edcd | edcA "E"BABc | "Bm"d2dc dfed | "E"cdBc "A"A2 |]

